X:52
M:4/4
L:1/4
K:D
D2 E F | A2 B2 | A4 | A2 B A | (d c) B2 | A2 A2 | B A G F | E D E F/G/ | E2 !fermata!D2 | d2 c B | A2 B2 | A4 | =c2 B A | G2 F2 | !fermata!E2 !sintro!E2 | A B A G | F D E F/G/ | E2 !fermata!D2 !eintro!|]
